!!!COM: Anonymous
!!!OTL@@LAT: Media vita in morte sumus
!!!OTL@POL: W pośrodku życia w śmierci jesteśmy
!!!TXO: Polish/Latin
!!!ODT: 
!!!GTL: Hymnbook L 1642
!!!ARL: Biblioteka Diecezjalna w Sandomierzu 
!!!voices:	4
**kern	**text	**text	**kern	**text	**text	**kern	**text	**text	**kern	**text	**text
*staff4	*staff4	*staff4	*staff3	*staff3	*staff3	*staff2	*staff2	*staff2	*staff1	*staff1	*staff1
*I"Basso	*	*	*I"Canto III	*	*	*I"Canto II	*	*	*I"Canto I	*	*
=1-	=1-	=1-	=1-	=1-	=1-	=1-	=1-	=1-	=1-	=1-	=1-
*clefF4	*	*	*clefG2	*	*	*clefG2	*	*	*clefG2	*	*
*k[b-]	*	*	*k[b-]	*	*	*k[b-]	*	*	*k[b-]	*	*
*met(c|)	*	*	*met(c|)	*	*	*met(c|)	*	*	*met(c|)	*	*
*M2/2	*	*	*M2/2	*	*	*M2/2	*	*	*M2/2	*	*
1G	Me-	W͜ po-	1d	Me-	W͜ po-	1g	Me-	W͜ po-	1g	Me-	W͜ po-
=2	=2	=2	=2	=2	=2	=2	=2	=2	=2	=2	=2
2D\	-di-	-śro-	2d/	-di-	-śro-	2f#/	-di-	-śro-	2a/	-di-	-śro-
2G\	-a	-dku	2d/	-a	-dku	2g/	-a	-dku	2b-\	-a	-dku
=3	=3	=3	=3	=3	=3	=3	=3	=3	=3	=3	=3
1F	vi-	ży-	1f	vi-	ży-	1a	vi-	ży-	1cc	vi-	ży-
=4	=4	=4	=4	=4	=4	=4	=4	=4	=4	=4	=4
[1BB-	-ta	-cia	[1f	-ta	-cia	[1b-	-ta	-cia	[1dd	-ta	-cia
=5	=5	=5	=5	=5	=5	=5	=5	=5	=5	=5	=5
1BB-]	.	.	1f]	.	.	1b-]	.	.	1dd]	.	.
=6	=6	=6	=6	=6	=6	=6	=6	=6	=6	=6	=6
1F	in	w͜ śmier-	1f	in	w͜ śmier-	1a	in	w͜ śmier-	1cc	in	w͜ śmier-
=7	=7	=7	=7	=7	=7	=7	=7	=7	=7	=7	=7
2G\	mor-	-ci	2d/	mor-	-ci	2g/	mor-	-ci	2b-\	mor-	-ci
2C/	-te	jes-	2c/	-te	jes-	2g/	-te	jes-	2cc\	-te	jes-
=8	=8	=8	=8	=8	=8	=8	=8	=8	=8	=8	=8
1D	su-	-teś-	1d	su-	-teś-	1f#	su-	-teś-	1a	su-	-teś-
=9	=9	=9	=9	=9	=9	=9	=9	=9	=9	=9	=9
[1GG	-mus	-my	[1d	-mus	-my	[1g	-mus	-my	[1b-	-mus	-my
=10	=10	=10	=10	=10	=10	=10	=10	=10	=10	=10	=10
1GG]	.	.	1d]	.	.	1g]	.	.	1b-]	.	.
=11	=11	=11	=11	=11	=11	=11	=11	=11	=11	=11	=11
2G\	Quem	Ko-	2g/	Quem	Ko-	2b-\	Quem	Ko-	2dd\	Quem	Ko-
[2B-\	que-	-g&oacute;ż	[2f/	que-	-g&oacute;ż	[2b-\	que-	-g&oacute;ż	[2dd\	que-	-g&oacute;ż
=12	=12	=12	=12	=12	=12	=12	=12	=12	=12	=12	=12
2B-\]	.	.	2f/]	.	.	2b-\]	.	.	2dd\]	.	.
2F\	-ri-	szu-	2f/	-ri-	szu-	2a/	-ri-	szu-	2cc\	-ri-	szu-
=13	=13	=13	=13	=13	=13	=13	=13	=13	=13	=13	=13
1G	-mus	-kać	1d	-mus	-kać	1g	-mus	-kać	1b-	-mus	-kać
=14	=14	=14	=14	=14	=14	=14	=14	=14	=14	=14	=14
2F\	ad-	po-	2f/	ad-	po-	2a/	ad-	po-	2cc\	ad-	po-
2F\	-iu-	-mo-	2f/	-iu-	-mo-	2a/	-iu-	-mo-	2cc\	-iu-	-mo-
=15	=15	=15	=15	=15	=15	=15	=15	=15	=15	=15	=15
1BB-	-to-	-cni-	1f	-to-	-cni-	1b-	-to-	-cni-	1dd	-to-	-cni-
=16	=16	=16	=16	=16	=16	=16	=16	=16	=16	=16	=16
1F	-rem	-kiem	1f	-rem	-kiem	1a	-rem	-kiem	1cc	-rem	-kiem
=17	=17	=17	=17	=17	=17	=17	=17	=17	=17	=17	=17
1G	ni-	tyl-	1g	ni-	tyl-	1b-	ni-	tyl-	1dd	ni-	tyl-
=18	=18	=18	=18	=18	=18	=18	=18	=18	=18	=18	=18
2G\	-si	-ko	2d/	-si	-ko	2g/	-si	-ko	2b-\	-si	-ko
2F#\	Te	Cie-	2d/	Te	Cie-	2a/	Te	Cie-	2cc\	Te	Cie-
=19	=19	=19	=19	=19	=19	=19	=19	=19	=19	=19	=19
[1G	Do-	-bie	[1d	Do-	-bie	[1g	Do-	-bie	[1b-	Do-	-bie
=20	=20	=20	=20	=20	=20	=20	=20	=20	=20	=20	=20
2G\]	.	.	2d/]	.	.	2g/]	.	.	2b-\]	.	.
2G\	-mi-	Pa-	2d/	-mi-	Pa-	2g/	-mi-	Pa-	2b-\	-mi-	Pa-
=21	=21	=21	=21	=21	=21	=21	=21	=21	=21	=21	=21
1D	-ne	-nie	1d	-ne	-nie	1f#	-ne	-nie	1a	-ne	-nie
=22	=22	=22	=22	=22	=22	=22	=22	=22	=22	=22	=22
1G	Qui	Kt&oacute;-	1d	Qui	Kt&oacute;-	1g	Qui	Kt&oacute;-	1b-	Qui	Kt&oacute;-
=23	=23	=23	=23	=23	=23	=23	=23	=23	=23	=23	=23
2G\	pro	-ry	2d/	pro	-ry	2g/	pro	-ry	2b-\	pro	-ry
2F\	pec-	za	2f/	pec-	za	2a/	pec-	za	2cc\	pec-	za
=24	=24	=24	=24	=24	=24	=24	=24	=24	=24	=24	=24
2B-\	-ca-	grze-	2f/	-ca-	grze-	2b-\	-ca-	grze-	2dd\	-ca-	grze-
2F\	-tis	-chy	2f/	-tis	-chy	2a/	-tis	-chy	2cc\	-tis	-chy
=25	=25	=25	=25	=25	=25	=25	=25	=25	=25	=25	=25
1G	no-	na-	1d	no-	na-	1g	no-	na-	1b-	no-	na-
=26	=26	=26	=26	=26	=26	=26	=26	=26	=26	=26	=26
1D	-stris	-sze	1d	-stris	-sze	1f#	-stris	-sze	1a	-stris	-sze
=27	=27	=27	=27	=27	=27	=27	=27	=27	=27	=27	=27
1BB-	iu-	słu-	1f	iu-	słu-	1b-	iu-	słu-	1dd	iu-	słu-
=28	=28	=28	=28	=28	=28	=28	=28	=28	=28	=28	=28
1F	-ste	-sznieś	1f	-ste	-sznieś	1a	-ste	-sznieś	1cc	-ste	-sznieś
=29	=29	=29	=29	=29	=29	=29	=29	=29	=29	=29	=29
2G\	i-	roz-	2d/	i-	roz-	2g/	i-	roz-	2b-\	i-	roz-
2C/	-ra-	-gnie-	2e-/	-ra-	-gnie-	2g/	-ra-	-gnie-	2cc\	-ra-	-gnie-
=30	=30	=30	=30	=30	=30	=30	=30	=30	=30	=30	=30
1D	-sce-	-wa-	1d	-sce-	-wa-	1f#	-sce-	-wa-	1a	-sce-	-wa-
=31	=31	=31	=31	=31	=31	=31	=31	=31	=31	=31	=31
[1GG	-ris	-ny	[1d	-ris	-ny	[1g	-ris	-ny	[1b-	-ris	-ny
=32	=32	=32	=32	=32	=32	=32	=32	=32	=32	=32	=32
1GG]	.	.	1d]	.	.	1g]	.	.	1b-]	.	.
=33	=33	=33	=33	=33	=33	=33	=33	=33	=33	=33	=33
=	=	=	=	=	=	=	=	=	=	=	=
1G	San-	Świę-	1d	San-	Świę-	1g	San-	Świę-	1b-	San-	Świę-
=34	=34	=34	=34	=34	=34	=34	=34	=34	=34	=34	=34
2F#\	-cte	-ty	2f#i/	-cte	-ty	2a/	-cte	-ty	2cc\	-cte	-ty
2G\	De-	Bo-	2d/	De-	Bo-	2g/	De-	Bo-	2b-\	De-	Bo-
=35	=35	=35	=35	=35	=35	=35	=35	=35	=35	=35	=35
1D	-us	-że	1d	-us	-że	1f#	-us	-że	1a	-us	-że
=36	=36	=36	=36	=36	=36	=36	=36	=36	=36	=36	=36
1D	san-	świę-	1d	san-	świę-	1f#	san-	świę-	1a	san-	świę-
=37	=37	=37	=37	=37	=37	=37	=37	=37	=37	=37	=37
2G\	-cte	-ty	2d/	-cte	-ty	2g/	-cte	-ty	2b-\	-cte	-ty
2G\	for-	mo-	2d/	for-	mo-	2g/	for-	mo-	2b-\	for-	mo-
=38	=38	=38	=38	=38	=38	=38	=38	=38	=38	=38	=38
1F	-tis	-cny	1f	-tis	-cny	1a	-tis	-cny	1cc	-tis	-cny
=39	=39	=39	=39	=39	=39	=39	=39	=39	=39	=39	=39
1BB-	san-	świę-	1f	san-	świę-	1b-	san-	świę-	1dd	san-	świę-
=40	=40	=40	=40	=40	=40	=40	=40	=40	=40	=40	=40
1F	-cte	-ty	1f	-cte	-ty	1a	-cte	-ty	1cc	-cte	-ty
=41	=41	=41	=41	=41	=41	=41	=41	=41	=41	=41	=41
1G	et	i	1d	et	i	1g	et	i	1b-	et	i
=42	=42	=42	=42	=42	=42	=42	=42	=42	=42	=42	=42
2F\	im-	nie-	2f/	im-	nie-	2a/	im-	nie-	2cc\	im-	nie-
2D\	-mor-	-śmier-	2a/	-mor-	-śmier-	2dd\	-mor-	-śmier-	2ff\	-mor-	-śmier-
=43	=43	=43	=43	=43	=43	=43	=43	=43	=43	=43	=43
1AA	-ta-	-tel-	1a	-ta-	-tel-	1cc#	-ta-	-tel-	1ee	-ta-	-tel-
=44	=44	=44	=44	=44	=44	=44	=44	=44	=44	=44	=44
1D	-lis	-ny	1f	-lis	-ny	1dd	-lis	-ny	1dd	-lis	-ny
=45	=45	=45	=45	=45	=45	=45	=45	=45	=45	=45	=45
1BB-	mi-	zmi-	1f	mi-	zmi-	1b-	mi-	zmi-	1dd	mi-	zmi-
=46	=46	=46	=46	=46	=46	=46	=46	=46	=46	=46	=46
1F	-se-	-łuj	1f	-se-	-łuj	1a	-se-	-łuj	1cc	-se-	-łuj
=47	=47	=47	=47	=47	=47	=47	=47	=47	=47	=47	=47
2G\	-re-	się	2d/	-re-	się	2g/	-re-	się	2b-\	-re-	się
2C/	-re	nad	2e/	-re	nad	2g/	-re	nad	2cc\	-re	nad
=48	=48	=48	=48	=48	=48	=48	=48	=48	=48	=48	=48
1D	no-	na-	1d	no-	na-	1f#	no-	na-	1a	no-	na-
=49	=49	=49	=49	=49	=49	=49	=49	=49	=49	=49	=49
[1GG	-bis.	-mi.	[1d	-bis.	-mi.	[1g	-bis.	-mi.	[1bni	-bis.	-mi.
=50	=50	=50	=50	=50	=50	=50	=50	=50	=50	=50	=50
1GG]	.	.	1d]	.	.	1g]	.	.	1b]	.	.
==:|!	==:|!	==:|!	==:|!	==:|!	==:|!	==:|!	==:|!	==:|!	==:|!	==:|!	==:|!
*-	*-	*-	*-	*-	*-	*-	*-	*-	*-	*-	*-
!!!GTL: Hymnbook L 1642
!!!EFL: 30/39
!!!YEM: Creative Commons CC/BY/NC/SA 4.0
!!!ENC: Marcin Konik
!!!END: 2015-02-21 
!!!EED: Marcin Konik
!!!EEV: 
!!!ONB: Translated from MusicXML and edited by Marcin Konik
!!!CharacterEncoding: utf-8
!!!RDF**kern: i=editorial accidental
!!muse2ps: z14jc180F
!!title: @{OTL}, @{GTL}: @{pag}, ed. @{ENC}
